apps/24/scim-setup.svg

<?xml version="1.0" encoding="UTF-8" standalone="no"?>
<!-- Created with Inkscape (http://www.inkscape.org/) -->

<svg
   xmlns:svg="http://www.w3.org/2000/svg"
   xmlns="http://www.w3.org/2000/svg"
   xmlns:xlink="http://www.w3.org/1999/xlink"
   version="1.0"
   width="24"
   height="24"
   id="svg3376">
  <defs
     id="defs3378">
    <linearGradient
       id="linearGradient3702-501-757">
      <stop
         id="stop2895"
         style="stop-color:#181818;stop-opacity:0"
         offset="0" />
      <stop
         id="stop2897"
         style="stop-color:#181818;stop-opacity:1"
         offset="0.5" />
      <stop
         id="stop2899"
         style="stop-color:#181818;stop-opacity:0"
         offset="1" />
    </linearGradient>
    <linearGradient
       x1="25.058096"
       y1="47.027729"
       x2="25.058096"
       y2="39.999443"
       id="linearGradient2554"
       xlink:href="#linearGradient3702-501-757"
       gradientUnits="userSpaceOnUse" />
    <linearGradient
       id="linearGradient3688-464-309">
      <stop
         id="stop2889"
         style="stop-color:#181818;stop-opacity:1"
         offset="0" />
      <stop
         id="stop2891"
         style="stop-color:#181818;stop-opacity:0"
         offset="1" />
    </linearGradient>
    <radialGradient
       cx="4.9929786"
       cy="43.5"
       r="2.5"
       fx="4.9929786"
       fy="43.5"
       id="radialGradient2552"
       xlink:href="#linearGradient3688-464-309"
       gradientUnits="userSpaceOnUse"
       gradientTransform="matrix(2.003784,0,0,1.4,-20.01187,-104.4)" />
    <linearGradient
       id="linearGradient3688-166-749">
      <stop
         id="stop2883"
         style="stop-color:#181818;stop-opacity:1"
         offset="0" />
      <stop
         id="stop2885"
         style="stop-color:#181818;stop-opacity:0"
         offset="1" />
    </linearGradient>
    <radialGradient
       cx="4.9929786"
       cy="43.5"
       r="2.5"
       fx="4.9929786"
       fy="43.5"
       id="radialGradient2550"
       xlink:href="#linearGradient3688-166-749"
       gradientUnits="userSpaceOnUse"
       gradientTransform="matrix(2.003784,0,0,1.4,27.98813,-17.4)" />
    <linearGradient
       id="linearGradient5554">
      <stop
         id="stop5556"
         style="stop-color:#7d7f79;stop-opacity:1"
         offset="0" />
      <stop
         id="stop5558"
         style="stop-color:#a5a7a2;stop-opacity:1"
         offset="1" />
    </linearGradient>
    <linearGradient
       x1="16.066387"
       y1="26.936842"
       x2="16.362761"
       y2="2.9876688"
       id="linearGradient2595"
       xlink:href="#linearGradient5554"
       gradientUnits="userSpaceOnUse"
       gradientTransform="matrix(0.5119994,0,0,0.5113879,-0.3295285,-0.2835504)" />
    <linearGradient
       id="linearGradient3368">
      <stop
         id="stop3370"
         style="stop-color:#f1f1ef;stop-opacity:1"
         offset="0" />
      <stop
         id="stop3372"
         style="stop-color:#ccc;stop-opacity:1"
         offset="1" />
    </linearGradient>
    <radialGradient
       cx="4.0799417"
       cy="5.0786786"
       r="9.9909229"
       fx="4.0799417"
       fy="5.0786786"
       id="radialGradient2593"
       xlink:href="#linearGradient3368"
       gradientUnits="userSpaceOnUse"
       gradientTransform="matrix(0,1.4554793,-2.2034188,-3.5037039e-6,17.309584,-0.5030148)" />
    <linearGradient
       id="linearGradient5684">
      <stop
         id="stop5686"
         style="stop-color:white;stop-opacity:1"
         offset="0" />
      <stop
         id="stop5688"
         style="stop-color:#fbfbfa;stop-opacity:0"
         offset="1" />
    </linearGradient>
    <linearGradient
       x1="11.05373"
       y1="7.068707"
       x2="11.05373"
       y2="2.6694806"
       id="linearGradient2590"
       xlink:href="#linearGradient5684"
       gradientUnits="userSpaceOnUse"
       gradientTransform="matrix(1.0070317,0,0,1.0001135,0.8685415,0.9901662)" />
    <linearGradient
       id="linearGradient5566">
      <stop
         id="stop5568"
         style="stop-color:#eeeeec;stop-opacity:1"
         offset="0" />
      <stop
         id="stop5570"
         style="stop-color:#eeeeec;stop-opacity:0"
         offset="1" />
    </linearGradient>
    <linearGradient
       x1="8.0708427"
       y1="9.5091877"
       x2="8.1333427"
       y2="5.6960859"
       id="linearGradient2588"
       xlink:href="#linearGradient5566"
       gradientUnits="userSpaceOnUse"
       gradientTransform="matrix(0.9997709,0,0,1.0001135,0.9956626,0.9901662)" />
    <linearGradient
       id="linearGradient5946">
      <stop
         id="stop5948"
         style="stop-color:white;stop-opacity:1"
         offset="0" />
      <stop
         id="stop5950"
         style="stop-color:white;stop-opacity:0"
         offset="1" />
    </linearGradient>
    <linearGradient
       x1="39.767197"
       y1="38.497765"
       x2="40.912174"
       y2="40.530697"
       id="linearGradient2583"
       xlink:href="#linearGradient5946"
       gradientUnits="userSpaceOnUse"
       gradientTransform="matrix(0.4809353,0,0,0.483131,0.4058582,0.4311749)" />
    <linearGradient
       id="linearGradient5954">
      <stop
         id="stop5956"
         style="stop-color:white;stop-opacity:1"
         offset="0" />
      <stop
         id="stop5958"
         style="stop-color:white;stop-opacity:0"
         offset="1" />
    </linearGradient>
    <linearGradient
       x1="9.1899414"
       y1="38.01667"
       x2="6.7953143"
       y2="40.66832"
       id="linearGradient2580"
       xlink:href="#linearGradient5954"
       gradientUnits="userSpaceOnUse"
       gradientTransform="matrix(0.4809353,0,0,0.483131,0.4058582,0.4311749)" />
  </defs>
  <g
     id="layer1">
    <g
       transform="matrix(0.5999998,0,0,0.3333336,-2.3000012,8.3333303)"
       id="g2036"
       style="display:inline">
      <g
         transform="matrix(1.052632,0,0,1.285713,-1.263158,-13.42854)"
         id="g3712"
         style="opacity:0.4">
        <rect
           width="5"
           height="7"
           x="38"
           y="40"
           id="rect2801"
           style="fill:url(#radialGradient2550);fill-opacity:1;stroke:none" />
        <rect
           width="5"
           height="7"
           x="-10"
           y="-47"
           transform="scale(-1,-1)"
           id="rect3696"
           style="fill:url(#radialGradient2552);fill-opacity:1;stroke:none" />
        <rect
           width="28"
           height="7.0000005"
           x="10"
           y="40"
           id="rect3700"
           style="fill:url(#linearGradient2554);fill-opacity:1;stroke:none" />
      </g>
    </g>
    <path
       d="m 20.986371,2.6801238 -2.120488,2.0043377 0,14.4677605 2.070876,1.914515 0.04961,-18.3866132 z"
       id="path5548"
       style="fill:#d3d7cf;fill-opacity:1;fill-rule:evenodd;stroke:none" />
    <rect
       width="21"
       height="21"
       rx="2.3097789"
       ry="2.3097789"
       x="1.5"
       y="1.4999999"
       id="rect4965"
       style="fill:url(#radialGradient2593);fill-opacity:1;stroke:url(#linearGradient2595);stroke-width:1;stroke-linecap:round;stroke-linejoin:miter;stroke-miterlimit:4;stroke-opacity:1;stroke-dasharray:none;stroke-dashoffset:0" />
    <rect
       width="13.000001"
       height="13.000001"
       rx="0.66097605"
       ry="0.65871537"
       x="5.5"
       y="5.5"
       id="rect5570"
       style="fill:url(#linearGradient2588);fill-opacity:1;stroke:url(#linearGradient2590);stroke-width:0.99999994;stroke-linecap:round;stroke-linejoin:miter;stroke-miterlimit:4;stroke-opacity:1;stroke-dasharray:none;stroke-dashoffset:0" />
    <rect
       width="19"
       height="19"
       rx="1.2408004"
       ry="1.2408004"
       x="2.5"
       y="2.5"
       id="rect5580"
       style="opacity:0.42708333;fill:none;stroke:white;stroke-width:1.00000012;stroke-linecap:round;stroke-linejoin:miter;stroke-miterlimit:4;stroke-opacity:1;stroke-dasharray:none;stroke-dashoffset:0" />
    <path
       d="m 20.519146,3.1662107 -1.80539,1.7700865"
       id="path5574"
       style="fill:#eff0ed;fill-opacity:1;fill-rule:evenodd;stroke:#eff0ed;stroke-width:1.00000012px;stroke-linecap:butt;stroke-linejoin:miter;stroke-opacity:1" />
    <path
       d="m 18.583479,18.220269 1.895658,2.133179"
       id="path5576"
       style="fill:none;stroke:url(#linearGradient2583);stroke-width:1.00000012px;stroke-linecap:butt;stroke-linejoin:miter;stroke-opacity:1" />
    <path
       d="M 5.2613877,18.286757 3.36573,20.419939"
       id="path5578"
       style="fill:none;stroke:url(#linearGradient2580);stroke-width:1.00000012px;stroke-linecap:butt;stroke-linejoin:miter;stroke-opacity:1" />
    <path
       d="m 13,16.075539 c 1.063307,-0.183804 2.194925,-0.77489 2.545297,-1.863593 0.277277,-0.875724 -0.0075,-1.963035 -0.842147,-2.431609 -0.53004,-0.507011 -0.519328,0.410467 -0.760345,0.73655 -0.730968,1.585843 -1.953427,3.038814 -3.615417,3.683036 C 9.431333,16.522722 8.253096,16.553919 7.5717701,15.782232 6.9383792,14.990298 6.9922764,13.842879 7.3685123,12.949555 7.8560091,11.848803 8.91729,11.108641 10.032313,10.734214 c 0,-0.547829 0,-1.095658 0,-1.643485 -0.827622,0 -1.6552445,0 -2.4828669,0 0,-0.2934786 0,-0.5869578 0,-0.8804382 0.8276224,0 1.6552449,0 2.4828669,0 0,-0.4793497 0,-0.9586987 0,-1.4380488 0.333008,0 0.666014,0 0.999023,0 0,0.4793501 0,0.9586991 0,1.4380488 1.728703,0 3.457404,0 5.186106,0 0,0.2934804 0,0.5869596 0,0.8804382 -1.728702,0 -3.457403,0 -5.186106,0 0,0.459784 0,0.919569 0,1.379354 1.41993,-0.199751 2.986945,-0.222658 4.25411,0.54546 0.851629,0.502436 1.397669,1.454441 1.386357,2.444059 0.06692,1.173384 -0.616241,2.29562 -1.615886,2.883465 C 14.510915,16.680429 13.892358,16.883974 13.264448,17 13.176298,16.691845 13.088148,16.383693 13,16.075539 z m 0.381979,-4.739692 c -0.77985,-0.103879 -1.58067,-0.07392 -2.350643,0.08804 0,1.11033 0,2.22066 0,3.330992 1.127103,-0.851786 1.881768,-2.105046 2.350643,-3.419035 l 0,0 z m -3.349666,3.991319 c 0,-1.193484 0,-2.386965 0,-3.580449 -0.9846682,0.41708 -1.9246354,1.295645 -1.9098969,2.43588 -0.027597,0.531156 0.2141351,1.169676 0.8012011,1.273024 0.3714858,0.08241 0.7577588,-2.88e-4 1.1086958,-0.128454 l 0,-10e-7 z"
       id="text2424"
       style="font-size:28.6944046px;font-style:normal;font-weight:normal;fill:black;fill-opacity:1;stroke:none;font-family:Bitstream Vera Sans;-inkscape-font-specification:Bitstream Vera Sans" />
  </g>
</svg>

<?xml version="1.0" encoding="UTF-8" standalone="no"?>
<!-- Created with Inkscape (http://www.inkscape.org/) -->
<svg
   xmlns:svg="http://www.w3.org/2000/svg"
   xmlns="http://www.w3.org/2000/svg"
   xmlns:xlink="http://www.w3.org/1999/xlink"
   version="1.0"
   width="24"
   height="24"
   id="svg3376">
  <defs
     id="defs3378">
    <linearGradient
       id="linearGradient3702-501-757">
      <stop
         id="stop2895"
         style="stop-color:#181818;stop-opacity:0"
         offset="0" />
      <stop
         id="stop2897"
         style="stop-color:#181818;stop-opacity:1"
         offset="0.5" />
      <stop
         id="stop2899"
         style="stop-color:#181818;stop-opacity:0"
         offset="1" />
    </linearGradient>
    <linearGradient
       x1="25.058096"
       y1="47.027729"
       x2="25.058096"
       y2="39.999443"
       id="linearGradient2554"
       xlink:href="#linearGradient3702-501-757"
       gradientUnits="userSpaceOnUse" />
    <linearGradient
       id="linearGradient3688-464-309">
      <stop
         id="stop2889"
         style="stop-color:#181818;stop-opacity:1"
         offset="0" />
      <stop
         id="stop2891"
         style="stop-color:#181818;stop-opacity:0"
         offset="1" />
    </linearGradient>
    <radialGradient
       cx="4.9929786"
       cy="43.5"
       r="2.5"
       fx="4.9929786"
       fy="43.5"
       id="radialGradient2552"
       xlink:href="#linearGradient3688-464-309"
       gradientUnits="userSpaceOnUse"
       gradientTransform="matrix(2.003784,0,0,1.4,-20.01187,-104.4)" />
    <linearGradient
       id="linearGradient3688-166-749">
      <stop
         id="stop2883"
         style="stop-color:#181818;stop-opacity:1"
         offset="0" />
      <stop
         id="stop2885"
         style="stop-color:#181818;stop-opacity:0"
         offset="1" />
    </linearGradient>
    <radialGradient
       cx="4.9929786"
       cy="43.5"
       r="2.5"
       fx="4.9929786"
       fy="43.5"
       id="radialGradient2550"
       xlink:href="#linearGradient3688-166-749"
       gradientUnits="userSpaceOnUse"
       gradientTransform="matrix(2.003784,0,0,1.4,27.98813,-17.4)" />
    <linearGradient
       id="linearGradient5554">
      <stop
         id="stop5556"
         style="stop-color:#7d7f79;stop-opacity:1"
         offset="0" />
      <stop
         id="stop5558"
         style="stop-color:#a5a7a2;stop-opacity:1"
         offset="1" />
    </linearGradient>
    <linearGradient
       x1="16.066387"
       y1="26.936842"
       x2="16.362761"
       y2="2.9876688"
       id="linearGradient2595"
       xlink:href="#linearGradient5554"
       gradientUnits="userSpaceOnUse"
       gradientTransform="matrix(0.5119994,0,0,0.5113879,-0.3295285,-0.2835504)" />
    <linearGradient
       id="linearGradient3368">
      <stop
         id="stop3370"
         style="stop-color:#f1f1ef;stop-opacity:1"
         offset="0" />
      <stop
         id="stop3372"
         style="stop-color:#cccccc;stop-opacity:1"
         offset="1" />
    </linearGradient>
    <radialGradient
       cx="4.0799417"
       cy="5.0786786"
       r="9.9909229"
       fx="4.0799417"
       fy="5.0786786"
       id="radialGradient2593"
       xlink:href="#linearGradient3368"
       gradientUnits="userSpaceOnUse"
       gradientTransform="matrix(0,1.4554793,-2.2034188,-3.5037039e-6,17.309584,-0.5030148)" />
    <linearGradient
       id="linearGradient5684">
      <stop
         id="stop5686"
         style="stop-color:#ffffff;stop-opacity:1"
         offset="0" />
      <stop
         id="stop5688"
         style="stop-color:#fbfbfa;stop-opacity:0"
         offset="1" />
    </linearGradient>
    <linearGradient
       x1="11.05373"
       y1="7.068707"
       x2="11.05373"
       y2="2.6694806"
       id="linearGradient2590"
       xlink:href="#linearGradient5684"
       gradientUnits="userSpaceOnUse"
       gradientTransform="matrix(1.0070317,0,0,1.0001135,0.8685415,0.9901662)" />
    <linearGradient
       id="linearGradient5566">
      <stop
         id="stop5568"
         style="stop-color:#eeeeec;stop-opacity:1"
         offset="0" />
      <stop
         id="stop5570"
         style="stop-color:#eeeeec;stop-opacity:0"
         offset="1" />
    </linearGradient>
    <linearGradient
       x1="8.0708427"
       y1="9.5091877"
       x2="8.1333427"
       y2="5.6960859"
       id="linearGradient2588"
       xlink:href="#linearGradient5566"
       gradientUnits="userSpaceOnUse"
       gradientTransform="matrix(0.9997709,0,0,1.0001135,0.9956626,0.9901662)" />
    <linearGradient
       id="linearGradient5946">
      <stop
         id="stop5948"
         style="stop-color:#ffffff;stop-opacity:1"
         offset="0" />
      <stop
         id="stop5950"
         style="stop-color:#ffffff;stop-opacity:0"
         offset="1" />
    </linearGradient>
    <linearGradient
       x1="39.767197"
       y1="38.497765"
       x2="40.912174"
       y2="40.530697"
       id="linearGradient2583"
       xlink:href="#linearGradient5946"
       gradientUnits="userSpaceOnUse"
       gradientTransform="matrix(0.4809353,0,0,0.483131,0.4058582,0.4311749)" />
    <linearGradient
       id="linearGradient5954">
      <stop
         id="stop5956"
         style="stop-color:#ffffff;stop-opacity:1"
         offset="0" />
      <stop
         id="stop5958"
         style="stop-color:#ffffff;stop-opacity:0"
         offset="1" />
    </linearGradient>
    <linearGradient
       x1="9.1899414"
       y1="38.01667"
       x2="6.7953143"
       y2="40.66832"
       id="linearGradient2580"
       xlink:href="#linearGradient5954"
       gradientUnits="userSpaceOnUse"
       gradientTransform="matrix(0.4809353,0,0,0.483131,0.4058582,0.4311749)" />
  </defs>
  <g
     id="layer1">
    <g
       transform="matrix(0.5999998,0,0,0.3333336,-2.3000012,8.3333303)"
       id="g2036"
       style="display:inline">
      <g
         transform="matrix(1.052632,0,0,1.285713,-1.263158,-13.42854)"
         id="g3712"
         style="opacity:0.4">
        <rect
           width="5"
           height="7"
           x="38"
           y="40"
           id="rect2801"
           style="fill:url(#radialGradient2550);fill-opacity:1;stroke:none" />
        <rect
           width="5"
           height="7"
           x="-10"
           y="-47"
           transform="scale(-1,-1)"
           id="rect3696"
           style="fill:url(#radialGradient2552);fill-opacity:1;stroke:none" />
        <rect
           width="28"
           height="7.0000005"
           x="10"
           y="40"
           id="rect3700"
           style="fill:url(#linearGradient2554);fill-opacity:1;stroke:none" />
      </g>
    </g>
    <path
       d="M 20.986371,2.6801238 L 18.865883,4.6844615 L 18.865883,19.152222 L 20.936759,21.066737 L 20.986371,2.6801238 z"
       id="path5548"
       style="fill:#d3d7cf;fill-opacity:1;fill-rule:evenodd;stroke:none;stroke-width:1px;stroke-linecap:butt;stroke-linejoin:miter;stroke-opacity:1" />
    <rect
       width="21"
       height="21"
       rx="2.3097789"
       ry="2.3097789"
       x="1.5"
       y="1.4999999"
       id="rect4965"
       style="fill:url(#radialGradient2593);fill-opacity:1;stroke:url(#linearGradient2595);stroke-width:1;stroke-linecap:round;stroke-linejoin:miter;stroke-miterlimit:4;stroke-dasharray:none;stroke-dashoffset:0;stroke-opacity:1" />
    <rect
       width="13.000001"
       height="13.000001"
       rx="0.66097605"
       ry="0.65871537"
       x="5.5"
       y="5.5"
       id="rect5570"
       style="fill:url(#linearGradient2588);fill-opacity:1;stroke:url(#linearGradient2590);stroke-width:0.99999994;stroke-linecap:round;stroke-linejoin:miter;stroke-miterlimit:4;stroke-dasharray:none;stroke-dashoffset:0;stroke-opacity:1" />
    <rect
       width="19"
       height="19"
       rx="1.2408004"
       ry="1.2408004"
       x="2.5"
       y="2.5"
       id="rect5580"
       style="opacity:0.42708333;fill:none;fill-opacity:1;stroke:#ffffff;stroke-width:1.00000012;stroke-linecap:round;stroke-linejoin:miter;stroke-miterlimit:4;stroke-dasharray:none;stroke-dashoffset:0;stroke-opacity:1" />
    <path
       d="M 20.519146,3.1662107 L 18.713756,4.9362972"
       id="path5574"
       style="fill:#eff0ed;fill-opacity:1;fill-rule:evenodd;stroke:#eff0ed;stroke-width:1.00000012px;stroke-linecap:butt;stroke-linejoin:miter;stroke-opacity:1" />
    <path
       d="M 18.583479,18.220269 L 20.479137,20.353448"
       id="path5576"
       style="fill:none;fill-rule:evenodd;stroke:url(#linearGradient2583);stroke-width:1.00000012px;stroke-linecap:butt;stroke-linejoin:miter;stroke-opacity:1" />
    <path
       d="M 5.2613877,18.286757 L 3.36573,20.419939"
       id="path5578"
       style="fill:none;fill-rule:evenodd;stroke:url(#linearGradient2580);stroke-width:1.00000012px;stroke-linecap:butt;stroke-linejoin:miter;stroke-opacity:1" />
    <path
       d="M 13,16.075539 C 14.063307,15.891735 15.194925,15.300649 15.545297,14.211946 C 15.822574,13.336222 15.537795,12.248911 14.70315,11.780337 C 14.17311,11.273326 14.183822,12.190804 13.942805,12.516887 C 13.211837,14.10273 11.989378,15.555701 10.327388,16.199923 C 9.431333,16.522722 8.253096,16.553919 7.5717701,15.782232 C 6.9383792,14.990298 6.9922764,13.842879 7.3685123,12.949555 C 7.8560091,11.848803 8.91729,11.108641 10.032313,10.734214 C 10.032313,10.186385 10.032313,9.638556 10.032313,9.090729 C 9.204691,9.090729 8.3770685,9.090729 7.5494461,9.090729 C 7.5494461,8.7972504 7.5494461,8.5037712 7.5494461,8.2102908 C 8.3770685,8.2102908 9.204691,8.2102908 10.032313,8.2102908 C 10.032313,7.7309411 10.032313,7.2515921 10.032313,6.772242 C 10.365321,6.772242 10.698327,6.772242 11.031336,6.772242 C 11.031336,7.2515921 11.031336,7.7309411 11.031336,8.2102908 C 12.760039,8.2102908 14.48874,8.2102908 16.217442,8.2102908 C 16.217442,8.5037712 16.217442,8.7972504 16.217442,9.090729 C 14.48874,9.090729 12.760039,9.090729 11.031336,9.090729 C 11.031336,9.550513 11.031336,10.010298 11.031336,10.470083 C 12.451266,10.270332 14.018281,10.247425 15.285446,11.015543 C 16.137075,11.517979 16.683115,12.469984 16.671803,13.459602 C 16.738724,14.632986 16.055562,15.755222 15.055917,16.343067 C 14.510915,16.680429 13.892358,16.883974 13.264448,17 C 13.176298,16.691845 13.088148,16.383693 13,16.075539 z M 13.381979,11.335847 C 12.602129,11.231968 11.801309,11.261926 11.031336,11.42389 C 11.031336,12.53422 11.031336,13.64455 11.031336,14.754882 C 12.158439,13.903096 12.913104,12.649836 13.381979,11.335847 L 13.381979,11.335847 z M 10.032313,15.327166 C 10.032313,14.133682 10.032313,12.940201 10.032313,11.746717 C 9.0476448,12.163797 8.1076776,13.042362 8.1224161,14.182597 C 8.0948191,14.713753 8.3365512,15.352273 8.9236172,15.455621 C 9.295103,15.53803 9.681376,15.455333 10.032313,15.327167 L 10.032313,15.327166 z"
       id="text2424"
       style="font-size:28.6944046px;font-style:normal;font-weight:normal;fill:#000000;fill-opacity:1;stroke:none;stroke-width:1px;stroke-linecap:butt;stroke-linejoin:miter;stroke-opacity:1;font-family:Bitstream Vera Sans;-inkscape-font-specification:Bitstream Vera Sans" />
  </g>
</svg>
